X:1
L:1/8
M:2/2
K:C
 AG | E [CE]2 [CD] [CE]2 cB | A [FA]2 [FA] [FA]2 d2 | B[GB][GB][^FB] [GB][DA] [GB]2 | 
 [Ec]2 [Ec]d [Ec]AGF | E [CE]2 [CD] [CE]GcB | A [FA]2 [FA] [FA]2 dc | BGGG [GB][DA] [GB]2 | 
 [Ec]B[Ec]d [Ec]2 :| Gc- | cdeg- gage | gedc- c2 G2 | ccde g2 ag | e d2 e d2 ga | baba g2 d2 | 
 eged c2 G([GA-] | [AA]3) c BA G2 | [Ec]3 d [Ec] || Gcd | [ee]2 [ee]([ee]/[eg]/ [ee])d c2 | 
 [ee]3 [ee]/d/ cAGG | [DA]3 A/c/ BA[G,G][G,G] | [Ec]3 d [Ec]Gcd | [ee]3 [ee] d2 c2 | 
 [ee]3 [ee]/d/ cAGG | [DA]3 A/c/ BG[DA][DB] | [Ec]3 d [Ec] ||
